X: 46
T:Bekes Paros
O:Hungary
L:1/8
M:2/4
Q:1/4=140
K:F
   "F"[A2F2] [F2C2]| [C2A,2] [F2C2]| "C"G3 A  | "Gm"B G3| "F"[F4C4]| [F4C4]|\
|: "F"f2 "Am"e2    | "Dm"d2 "F"c2  | c2 "Bb"B2| "F"A2 F2| c4       |[1 c4  :|
   [2 "Bb"B4       | "F"A2 F2      | C2 F2    | "C"G3 A | "Gm"B G3 | "F"F4 | F4|



